X:1
T: The Dusty Winebottle
C: Dee Armstrong
M: 6/8
L: 1/8
K: Dmin
[|"Dm"af ed BA | "Dm"AB de fa | "Gm"(g2 g)f fe | "Gm (high)" e6 |
|"A5"ba ag gf | "A5/G"fe ef ge | "Dm"fe dB AF | "Dm (high)" D6 |
|"Dm"af ed BA | "Dm"AB de fa | "Gm"(g2 g)a ba | "Gm (high)" g6 |
|"A5"ba ag gf | "A5/G"fe ef ge | "Dm"fe dB AF | "Dm" D6|]
[|:"Dm"A,D EF ED | "Gm"B,D EF ED |"A5"CD EG EF | "Dm"FE DE DB,|
|"Dm"A,D EF ED | "Gm"B,D EF ED | "A5"CD EG EG | "Dm" Ad (d2 d2) :|
